X: 3151
Q: "Strathspey."
M: C
L: 1/16
K: Am
[|\
(ABcd) e3A cA3 c3B | Aa3 ge3 a3Ace3 |[|\
(agfe) a3e (ca3) e4 | (Bg3) g3d (BG3) (Bg3) |\
(agfe) a3e ea3 ca3 |
(agfe) a3e (ca3) e4 | (Bg3) g3d BG3 (Bd3) |\
(ABcd) e3A cA3 c3B | Aa3 ge3 a3Ace3 |]


